X:99023
T:Argyll's Fancy
P:Argyll is my Name
C:Traditional
R:Jig (8x32)
B:RSCDS Gr-23
Z:Anselm Lingnau <anselm@strathspey.org>
M:6/8
L:1/8
K:Bb
F|"Bb"F>BB BAB|"Cm"dcc "F7"c2e|"Bb"d>cB "F"A<fF|"F7"FG[AE] "Bb"[B2D2] F|
  "Bb"F>BB BAB|"Cm"dcc "F7"c2e|"Bb"d>cB d<fF|"F7"FG[AE] "Bb"[B2D2]||
f|"Bb"fdB Bdf|fed "Cm"e2g|"Bb"fdB Bdf|"Cm"fe"C7"d "F"c2 d|
  "Cm"e>fe "F"e>fe|"F"F>GF "F7"e2f/e/|"Bb"d>cB d<fF|"F7"FG[AE] "Bb"[B2D2]|]

